SVG_Azure_All/Cognitive Services Ink Recogniser.svg

<?xml version="1.0" encoding="UTF-8" standalone="no"?>
<!-- Generated by Microsoft Visio, SVG Export Cognitive Services Ink Recogniser.svg Page-1 -->

<svg
   xmlns:dc="http://purl.org/dc/elements/1.1/"
   xmlns:cc="http://creativecommons.org/ns#"
   xmlns:rdf="http://www.w3.org/1999/02/22-rdf-syntax-ns#"
   xmlns:svg="http://www.w3.org/2000/svg"
   xmlns="http://www.w3.org/2000/svg"
   xmlns:sodipodi="http://sodipodi.sourceforge.net/DTD/sodipodi-0.dtd"
   xmlns:inkscape="http://www.inkscape.org/namespaces/inkscape"
   width="0.78737432in"
   height="0.77827573in"
   viewBox="0 0 56.690966 56.0361"
   xml:space="preserve"
   class="st2"
   version="1.1"
   id="svg26"
   sodipodi:docname="Cognitive Services Ink Recogniser.svg"
   style="font-size:12px;overflow:visible;color-interpolation-filters:sRGB;fill:none;fill-rule:evenodd;stroke-linecap:square;stroke-miterlimit:3"
   inkscape:version="0.92.5 (2060ec1f9f, 2020-04-08)"><metadata
   id="metadata32"><rdf:RDF><cc:Work
       rdf:about=""><dc:format>image/svg+xml</dc:format><dc:type
         rdf:resource="http://purl.org/dc/dcmitype/StillImage" /></cc:Work></rdf:RDF></metadata><defs
   id="defs30" /><sodipodi:namedview
   pagecolor="#ffffff"
   bordercolor="#666666"
   borderopacity="1"
   objecttolerance="10"
   gridtolerance="10"
   guidetolerance="10"
   inkscape:pageopacity="0"
   inkscape:pageshadow="2"
   inkscape:window-width="640"
   inkscape:window-height="480"
   id="namedview28"
   showgrid="false"
   inkscape:zoom="1.7641684"
   inkscape:cx="37.795102"
   inkscape:cy="21.206915"
   inkscape:window-x="0"
   inkscape:window-y="0"
   inkscape:window-maximized="0"
   inkscape:current-layer="svg26" />
	<style
   type="text/css"
   id="style2">
	<![CDATA[
		.st1 {fill:#0078d4;stroke:none;stroke-linecap:butt;stroke-width:10.0328}
		.st2 {fill:none;fill-rule:evenodd;font-size:12px;overflow:visible;stroke-linecap:square;stroke-miterlimit:3}
	]]>
	</style>

	<g
   id="g24"
   transform="translate(-10.032957,-10.034657)">
		<title
   id="title4">Page-1</title>
		<g
   id="group6433-1"
   transform="translate(10.0328,-34.0157)">
			<title
   id="title6">Cognitive Services Ink Recogniser</title>
			<g
   id="shape6434-2"
   transform="translate(16.6226)">
				<title
   id="title8">Sheet.6434</title>
				<path
   d="m 31.21,45.81 -3,-1.45 c -1.47,-0.72 -3.24,-0.14 -4.02,1.28 l -1.12,2.09 c -0.8,-0.29 -1.72,0.04 -2.11,0.82 l -2.02,3.95 -2.12,-1.05 c -1.57,-0.78 -3.5,-0.16 -4.27,1.39 L 5.79,66.18 c -0.42,0.81 -0.09,1.81 0.73,2.22 0.84,0.44 1.88,0.11 2.31,-0.72 l 6.7,-13.02 1.84,0.92 L 1.2,87.36 1.18,92.37 c 0,0.9 0.28,1.71 0.75,2.39 l -1.5,2.83 C 0,98.43 0.34,99.47 1.2,99.9 c 0.85,0.43 1.89,0.09 2.32,-0.75 l 1.34,-2.59 c 0.82,0.11 1.68,0 2.5,-0.41 l 5.33,-2.63 19.85,-39.25 c 0.42,-0.83 0.1,-1.81 -0.72,-2.24 l 0.91,-1.9 c 0.78,-1.61 0.09,-3.54 -1.52,-4.32 z M 10.08,90.9 5.82,93.09 C 5.31,93.35 4.69,92.98 4.69,92.41 l -0.03,-4.15 18.58,-36.6 5.42,2.68 z m 18.6,-40.43 -2.47,-1.21 0.82,-1.63 2.49,1.23 z"
   class="st1"
   id="path10"
   inkscape:connector-curvature="0"
   style="fill:#0078d4;stroke:none;stroke-width:10.03279972;stroke-linecap:butt" />
			</g>
			<g
   id="shape6435-4"
   transform="translate(41.7712,-21.267)">
				<title
   id="title13">Sheet.6435</title>
				<path
   d="m 7.93,86.41 c -0.93,0.02 -1.69,0.78 -1.69,1.7 0,0.93 0.78,1.7 1.73,1.7 0.04,0 0.1,0 0.15,-0.02 1.88,0.13 3.37,1.66 3.37,3.54 0,1.95 -1.6,3.54 -3.57,3.56 H 1.77 L 0,100.33 h 7.92 c 3.87,-0.01 7,-3.17 7,-7 0,-3.83 -3.12,-6.9 -6.99,-6.92 z"
   class="st1"
   id="path15"
   inkscape:connector-curvature="0"
   style="fill:#0078d4;stroke:none;stroke-width:10.03279972;stroke-linecap:butt" />
			</g>
			<g
   id="shape6436-6"
   transform="translate(0,-0.288502)">
				<title
   id="title18">Sheet.6436</title>
				<path
   d="m 13.73,96.87 h -1.26 c -4.91,0 -8.9,-3.92 -8.9,-8.78 0,-4.83 3.99,-8.77 8.9,-8.77 h 4.44 l 1.8,-3.43 H 12.39 C 5.54,75.89 0,81.36 0,88.11 c 0,6.75 5.54,12.22 12.39,12.22 h 1.34 c -0.25,-0.52 -0.38,-1.1 -0.38,-1.73 -0.01,-0.61 0.13,-1.19 0.38,-1.73 z"
   class="st1"
   id="path20"
   inkscape:connector-curvature="0"
   style="fill:#0078d4;stroke:none;stroke-width:10.03279972;stroke-linecap:butt" />
			</g>
		</g>
	</g>
</svg>

<?xml version="1.0" encoding="UTF-8" standalone="no"?>
<!DOCTYPE svg PUBLIC "-//W3C//DTD SVG 1.1//EN" "http://www.w3.org/Graphics/SVG/1.1/DTD/svg11.dtd">
<!-- Generated by Microsoft Visio, SVG Export Cognitive Services Ink Recogniser.svg Page-1 -->
<svg xmlns="http://www.w3.org/2000/svg" xmlns:xlink="http://www.w3.org/1999/xlink" xmlns:ev="http://www.w3.org/2001/xml-events"
		width="1.06609in" height="1.39348in" viewBox="0 0 76.7585 100.331" xml:space="preserve" color-interpolation-filters="sRGB"
		class="st2">
	<style type="text/css">
	<![CDATA[
		.st1 {fill:#0078d4;stroke:none;stroke-linecap:butt;stroke-width:10.0328}
		.st2 {fill:none;fill-rule:evenodd;font-size:12px;overflow:visible;stroke-linecap:square;stroke-miterlimit:3}
	]]>
	</style>

	<g>
		<title>Page-1</title>
		<g id="group6265-1" transform="translate(10.0328,-34.0157)">
			<title>Cognitive Services Ink Recogniser</title>
			<g id="shape6266-2" transform="translate(16.6226,0)">
				<title>Sheet.6266</title>
				<path d="M31.21 45.81 L28.21 44.36 C26.74 43.64 24.97 44.22 24.19 45.64 L23.07 47.73 C22.27 47.44 21.35 47.77 20.96
							 48.55 L18.94 52.5 L16.82 51.45 C15.25 50.67 13.32 51.29 12.55 52.84 L5.79 66.18 C5.37 66.99 5.7 67.99
							 6.52 68.4 C7.36 68.84 8.4 68.51 8.83 67.68 L15.53 54.66 L17.37 55.58 L1.2 87.36 L1.18 92.37 C1.18 93.27
							 1.46 94.08 1.93 94.76 L0.43 97.59 C0 98.43 0.34 99.47 1.2 99.9 C2.05 100.33 3.09 99.99 3.52 99.15 L4.86
							 96.56 C5.68 96.67 6.54 96.56 7.36 96.15 L12.69 93.52 L32.54 54.27 C32.96 53.44 32.64 52.46 31.82 52.03
							 L32.73 50.13 C33.51 48.52 32.82 46.59 31.21 45.81 ZM10.08 90.9 L5.82 93.09 C5.31 93.35 4.69 92.98 4.69
							 92.41 L4.66 88.26 L23.24 51.66 L28.66 54.34 L10.08 90.9 ZM28.68 50.47 L26.21 49.26 L27.03 47.63 L29.52
							 48.86 L28.68 50.47 Z" class="st1"/>
			</g>
			<g id="shape6267-4" transform="translate(41.7712,-21.267)">
				<title>Sheet.6267</title>
				<path d="M7.93 86.41 C7 86.43 6.24 87.19 6.24 88.11 C6.24 89.04 7.02 89.81 7.97 89.81 C8.01 89.81 8.07 89.81 8.12
							 89.79 C10 89.92 11.49 91.45 11.49 93.33 C11.49 95.28 9.89 96.87 7.92 96.89 L1.77 96.89 L0 100.33 L7.92
							 100.33 C11.79 100.32 14.92 97.16 14.92 93.33 C14.92 89.5 11.8 86.43 7.93 86.41 Z" class="st1"/>
			</g>
			<g id="shape6268-6" transform="translate(2.79776E-13,-0.288502)">
				<title>Sheet.6268</title>
				<path d="M13.73 96.87 L12.47 96.87 C7.56 96.87 3.57 92.95 3.57 88.09 C3.57 83.26 7.56 79.32 12.47 79.32 L16.91 79.32
							 L18.71 75.89 L12.39 75.89 C5.54 75.89 0 81.36 0 88.11 C0 94.86 5.54 100.33 12.39 100.33 L13.73 100.33
							 C13.48 99.81 13.35 99.23 13.35 98.6 C13.34 97.99 13.48 97.41 13.73 96.87 Z" class="st1"/>
			</g>
		</g>
	</g>
</svg>
